Newaita/actions/symbolic/pan-start-symbolic.svg

<svg height="16" viewBox="0 0 16 16" width="16" xmlns="http://www.w3.org/2000/svg"><path d="m3.921875 8.046875c.003906.203125.097656.398437.257813.527344l6.578124 5.265625c.445313.359375 1.109376.039062 1.109376-.535156v-10.523438c0-.574219-.664063-.894531-1.109376-.535156l-6.578124 5.265625c-.164063.128906-.257813.324219-.257813.535156zm0 0" fill="#424242"/></svg>

<?xml version="1.0" encoding="UTF-8"?>
<svg xmlns="http://www.w3.org/2000/svg" xmlns:xlink="http://www.w3.org/1999/xlink" width="16px" height="16px" viewBox="0 0 16 16" version="1.1">
<g id="surface1">
<path style=" stroke:none;fill-rule:nonzero;fill:rgb(25.882354%,25.882354%,25.882354%);fill-opacity:1;" d="M 3.921875 8.046875 C 3.925781 8.25 4.019531 8.445312 4.179688 8.574219 L 10.757812 13.839844 C 11.203125 14.199219 11.867188 13.878906 11.867188 13.304688 L 11.867188 2.78125 C 11.867188 2.207031 11.203125 1.886719 10.757812 2.246094 L 4.179688 7.511719 C 4.015625 7.640625 3.921875 7.835938 3.921875 8.046875 Z M 3.921875 8.046875 "/>
</g>
</svg>
